X:1
T:Kingsbury Reel
M:4/4
L:1/8
N:Old Time breakdown
R:Reel
S:Laurie Andres
Z:Jo Anne Rocke 10/2/2003
K:D
|: (3ABc | "D"d2fe d2fg | afbf afef | d2fe d2ef | "G"gfed "A"cABc |
"D"d2fe d2fg | afbf afef | "G"gfga "A7"bgec | "D"d2f2d2 :|
|: e2 | "D"f3 g fedc | "Bm"B2Bc BAGF | "Em"E2ef edcB | "A"ABAG "A#dim"FEDE |
"Bm"F2FG FEDF | "G"GABd g4 | "D"fgaf "A7"bgec | "D"d2f2d2 :|
